X: 35061
T: Rolling In The Barrel
R: reel
M: 4/4
K: Dminor
D2D2 ADD2|cAGE cdec|D2D2 ADD2|cAGE F2 Ec|
D2 D2 ADD2|cAGE cdec|D2 D2 AD D2|cAGE ED D2||
de (3fed Afed|c2 ec gcec|de (3fed Afed|cAGE EDD2|
de (3fed Afed|c2 ec gcec|de (3fed Afed|cAGE F2 Ec||

